coach-lamp.svg

<svg fill="currentColor" viewBox="0 0 24 24"><path d="m16 5-1-3h-2l-1 3-6 3h2l.6 3H4V7H2v10h2v-4h5l1 5 2 2 1 2h2l1-2 2-2 2-10h2m-5.84 9h-4.32L10 8h8Z"/></svg>

<svg  viewBox="0 0 24 24" fill="currentColor"><path  d="M16 5L15 2H13L12 5L6 8H8L8.6 11H4V7H2V17H4V13H9L10 18L12 20L13 22H15L16 20L18 18L20 8H22M16.16 17H11.84L10 8H18Z"/></svg>
